X:15
T:Special Molly
T:to the tune of "The Triumph"
Z:Dave Holland dave@biff.org.uk
M:4/4
L:1/8
K:G
P:A
"G"d2B2 "C"cB"D"cA|"G"G2gf "C"efge|1"G"d2Bd "D"c2Ac|"G"B2GB "D"AFD2"*":|2"G"d2Bd "C"cBcA|"G"G2"D"F2 "G"G4||
P:B
"D"A3c "G"B2d2|"D"A3c "G"B2d2|"D"A3c "G"B2d2|"D"dcBA "G"G4:|
P:C
"G"B2Bc d2cB|"D"A2AB c2BA|"G"B2Bc d2g2|1"D"dcBA "G"G4:|2"D"fdef "G"g2z2|]
